X:1
T:Title
%%score { ( 1 3 ) | ( 2 4 ) }
L:1/8
M:6/4
K:C
V:1 treble nm="Grand Piano"
V:3 treble 
V:2 bass 
V:4 bass 
V:1
 z6 z4[Q:1/4=114] [EG]2 | [EG]3 [EG] [EG]2 [EG]2 [_E^F]2 [=EG]2 | [FA]3 [EG] [_E^F]2 [=EG]6 | %3
 [Ec]3 [FB] [Gc]2 d4 B2 |[M:5/4] [Ec]2- [Ec]2- [Ec]6 |[M:1/4] [EG]2 | %6
[M:6/4] [EG]3 [EG] [EG]2 [EG]2 [_E^F]2 [=EG]2 | [FA]3 [EG] [_E^F]2 [=EG]6 | %8
 [DB]3 [DA] [GB]2 [^Fc]4 [DF]2 | [DG]12 | [Ge]3 [Fd] [Ec]2 [EG]4 [Ec]2 | [FB]12 | d3 ^c d2 G4 d2 | %13
 [Ec]12 | [Ec]3 [DB] [Ec]2 [Ge]4 [Gc]2 | A3 ^G A2 [^Fd]4 [Fc]2 | B3 A B2 e4 d2 | %17
[M:5/4] c2- c2- c6 |] %18
V:2
 z6 z4 [C,C]2 | [C,C]3 [C,C] [C,C]2 [C,C]2 [C,C]2 [C,C]2 | [C,C]3 [C,C] [C,C]2 [C,C]6 | %3
 [C,G,]3 [D,G,] [E,C]2[K:treble] [G,B,F]4 [G,F]2 |[M:5/4][K:bass] [C,G,]2- [C,G,]2- [C,G,]6 | %5
[M:1/4] [C,C]2 |[M:6/4] [C,C]3 [C,C] [C,C]2 [C,C]2 [C,C]2 [C,C]2 | [C,C]3 [C,C] [C,C]2 [C,C]6 | %8
 [D,G,]3 [D,C] [D,D]2 [D,A,]4 [D,C]2 | [G,B,]12 | [C,C]3 [C,G,] [C,G,]2 [C,C]4 [C,G,]2 | %11
 [D,G,]4 D,2 D,6 | [G,B,F]3 [G,_B,E] [G,=B,F]2 [G,B,F]4 [G,F]2 | [C,G,]4 C,2 C,6 | %14
 [C,G,]3 [C,G,] [C,G,]2 [C,C]4 [E,C]2 | [F,CF]3 [F,B,F] [F,CF]2 [D,D]4 [D,D]2 | %16
 [G,DF]3 [G,^CF] [G,DF]2 [G,=CG]4 [G,B,F]2 |[M:5/4][K:bass] z4 A,2 G,4 |] %18
V:3
 x12 | x12 | x12 | x12 |[M:5/4] x10 |[M:1/4] x2 |[M:6/4] x12 | x12 | x12 | x12 | x12 | z4 G,2 G,6 | %12
 x12 | z4 G,2 G,6 | x12 | x12 | x12 |[M:5/4] [CE]4 F2 E4 |] %18
V:4
 x12 | x12 | x12 | x6[K:treble] x6 |[M:5/4][K:bass] x10 |[M:1/4] x2 |[M:6/4] x12 | x12 | x12 | %9
 x12 | x12 | x12 | x12 | x12 | x12 | x12 | x12 |[M:5/4][K:bass] C,2- C,2- C,6 |] %18

